X:1
T:Lord Moira's -- Hornpipe
Z:Bob Puckette <bpuckette:msn.com> 2003-3-10
T:Ladies' Triumph
R:hornpipe
B:Cole's 1000 Fiddle Tunes
M:2/4
L:1/16
K:F
vCFF2 Acc2|BG"4"AF EGEC|CFF2 Acc2|df"0"eg .f2a2|
CFF2 Acc2|BG"4"AF EGEC|CFF2 Acc2|df"0"eg f2 uc2|
fgaf g"0"ece|defd cAFA|fgaf gece|dfeg .f2(fg)|
afge fdec|defd cAFA|afge fdec|dfeg f2 (ucB)|
AFcF dFcF|AFcF GABc|AFcF dFcF|dfeg .f2(cB)|
AFcF dFcF|AFcF GABc|AFcF dFcF|dfeg f2z2|
